mresponse/frontend/app/public/static/media/icons/lock.svg

<svg width="20" height="22" xmlns="http://www.w3.org/2000/svg" xmlns:xlink="http://www.w3.org/1999/xlink"><defs><path d="M17 9h-1V6c0-3.3-2.7-6-6-6S4 2.7 4 6v3H3c-1.7 0-3 1.3-3 3v7c0 1.7 1.3 3 3 3h14c1.7 0 3-1.3 3-3v-7c0-1.7-1.3-3-3-3zM6 6c0-2.2 1.8-4 4-4s4 1.8 4 4v3H6V6zm12 13c0 .6-.4 1-1 1H3c-.6 0-1-.4-1-1v-7c0-.6.4-1 1-1h14c.6 0 1 .4 1 1v7z" id="a"/></defs><g fill="none" fill-rule="evenodd"><path d="M17 9h-1V6c0-3.3-2.7-6-6-6S4 2.7 4 6v3H3c-1.7 0-3 1.3-3 3v7c0 1.7 1.3 3 3 3h14c1.7 0 3-1.3 3-3v-7c0-1.7-1.3-3-3-3zM6 6c0-2.2 1.8-4 4-4s4 1.8 4 4v3H6V6zm12 13c0 .6-.4 1-1 1H3c-.6 0-1-.4-1-1v-7c0-.6.4-1 1-1h14c.6 0 1 .4 1 1v7z" fill="#000" fill-rule="nonzero"/><g><mask id="b" fill="#fff"><use xlink:href="#a"/></mask><path fill="#FFF" fill-rule="nonzero" mask="url(#b)" d="M-2-1h24v24H-2z"/></g></g></svg>

<?xml version="1.0" encoding="UTF-8"?>
<svg width="20px" height="22px" viewBox="0 0 20 22" version="1.1" xmlns="http://www.w3.org/2000/svg" xmlns:xlink="http://www.w3.org/1999/xlink">
    <!-- Generator: Sketch 51.2 (57519) - http://www.bohemiancoding.com/sketch -->
    <title>Group</title>
    <desc>Created with Sketch.</desc>
    <defs>
        <path d="M17,9 L16,9 L16,6 C16,2.7 13.3,0 10,0 C6.7,0 4,2.7 4,6 L4,9 L3,9 C1.3,9 0,10.3 0,12 L0,19 C0,20.7 1.3,22 3,22 L17,22 C18.7,22 20,20.7 20,19 L20,12 C20,10.3 18.7,9 17,9 Z M6,6 C6,3.8 7.8,2 10,2 C12.2,2 14,3.8 14,6 L14,9 L6,9 L6,6 Z M18,19 C18,19.6 17.6,20 17,20 L3,20 C2.4,20 2,19.6 2,19 L2,12 C2,11.4 2.4,11 3,11 L17,11 C17.6,11 18,11.4 18,12 L18,19 Z" id="path-1"></path>
    </defs>
    <g id="Page-1" stroke="none" stroke-width="1" fill="none" fill-rule="evenodd">
        <g id="group_3(1)" transform="translate(-20.000000, -18.000000)">
            <g id="Clipped">
                <g id="Group" transform="translate(20.000000, 18.000000)">
                    <g id="c-link" fill="#000000" fill-rule="nonzero">
                        <path d="M17,9 L16,9 L16,6 C16,2.7 13.3,0 10,0 C6.7,0 4,2.7 4,6 L4,9 L3,9 C1.3,9 0,10.3 0,12 L0,19 C0,20.7 1.3,22 3,22 L17,22 C18.7,22 20,20.7 20,19 L20,12 C20,10.3 18.7,9 17,9 Z M6,6 C6,3.8 7.8,2 10,2 C12.2,2 14,3.8 14,6 L14,9 L6,9 L6,6 Z M18,19 C18,19.6 17.6,20 17,20 L3,20 C2.4,20 2,19.6 2,19 L2,12 C2,11.4 2.4,11 3,11 L17,11 C17.6,11 18,11.4 18,12 L18,19 Z" id="c"></path>
                    </g>
                    <g id="Clipped">
                        <mask id="mask-2" fill="white">
                            <use xlink:href="#path-1"></use>
                        </mask>
                        <g id="c"></g>
                        <polygon id="Shape" fill="#FFFFFF" fill-rule="nonzero" mask="url(#mask-2)" points="-2 -1 22 -1 22 23 -2 23"></polygon>
                    </g>
                </g>
            </g>
        </g>
    </g>
</svg>
